X:115
T: ES LIEGT EIN SCHLOSS IN OESTERREICH
N: E0061E
O: Europa, Mitteleuropa, Deutschland
R: erzaehlendes Volks - Lied, Sage, Mord
M: 6/4
L: 1/4
K: G
D | G2BBAG | A2ccBA | B2ddcB | BAz3
d | d2BB2d | dcBA2c | BdGAcF | AGz3

@@@ Tune index: 3765
